X:1
T:Inter vestibulum et altare
T:Rodrigo de Ceballos (c. 1525 - c. 1571)
T:The Bible, Joel chapter 2 verse 17
T:Inter vestibulum et altare
T:In feria quarta cinerum (i.e. for Ash Wednesday)
T:Copyright © 
T:Copyright © 
T:Copyright © 
T:Copyright © 
C:Rodrigo de Ceballos (c. 1525 - c. 1571)
Z:The Bible, Joel
Z:chapter 2 verse 17
Z:Copyright ©
%%score [ 1 2 3 4 ]
L:1/8
M:2/2
K:F
V:1 treble nm="Tiple (treble)" snm="S."
V:2 treble nm="Contralto (Alto)" snm="A."
V:3 treble-8 transpose=-12 nm="Tenor" snm="T."
V:4 bass nm="Bajo (Bass)" snm="B."
V:1
 D4 A4- | A2 A2 B2 B2 | A4 z2 d2- | d2 c2 B2 A2 | B4 A2 d2- | d2 cB c2 A2- | AG G4 ^FE | ^F4 G4 | %8
w: In- ter|_ ves- ti- bu-|lum et|_ al- ta- re,|et al- ta-|* * * re, et|_ al- ta- * *|* re|
 z8 | z8 | A4 d4- | d2 c2 c2 A2 | B4 A4 | z2 G2 B4- | B2 A2 A2 B2- | BA A2 B4 | z2 B2 B4- | %17
w: ||plo- ra|_ bunt sa- cer-|do- tes,|plo- ra-|* bunt sa- cer-|* * do- tes,|plo- ra-|
 B2 B2 B2 B2- | B2 AG A4 | G8 | z2 d2 d2 d2 | c3 B A2 G2 | A4 A4- | A4 z4 | d8 | B4 z2 B2- | %26
w: * bunt sa- cer-|* * * do-|tes,|mi- nis- tri|do- mi- ni di-|cen- tes:|_|Par-|ce, par-|
 B2 B2 A2 A2 | G4 z2 D2 | _E2 G2 ^F2 G2- | G^F F2 G4- | G4 z2 B2- | B2 A2 A2 A2 | G2 B3 A A2 | B8 | %34
w: * ce do- mi-|ne, par-|ce _ po- pu-|* lo tu- o,|_ par-|* ce po- pu-|lo tu- * *|o,|
 z4 z2 B2 | B2 B4 AG | A2 B2 c2 c2 | F4 F2 F2 | G2 DE FGAB | c2 B2 A2 A2 | A4 D2 G2- | GE ^F2 G4 | %42
w: et|ne des he- *|re- di- ta- tem|tu- am, et|ne des _ he- * * *|re- di- ta- tem|tu- am, tu-|* * * am|
 z8 | z4 z2 B2- | B2 A4 G2- | G2 ^F2 G4- | G4 z4 | z4 z2 _e2- | e2 d4 c2- | c2 B4 A2 | B4 z2 d2 | %51
w: |in|_ op- pro-|* bri- um|_|in|_ op- pro-|* * bri-|um, ut|
 d2 B2 d3 c | B2 A2 G2 F2 | G4 F4 | z2 B2 B2 B2 | c4 F4 | z2 B2 B2 G2 | B3 A G2 F2 | G2 G2 B4 | %59
w: do- mi- nen- tur|e- is na- ti-|o- nes,|ut do- mi-|nen- tur,|ut do- mi-|nen- tur e- is|na- ti- o-|
 B4 z2 B2 | c2 c2 F4 | B4 z2 d2 | d2 B2 d3 c | B2 A2 G2 B2 | A2 G4 ^F2 | G8 |] %66
w: nes. ut|do- mi- nen-|tur, ut|do- mi- nen- tur|e- is na- ti-|o- * *|nes.|
V:2
 z8 | z4 G,4 | D6 D2 | _E2 E2 D4 | z2 G4 F2 | E3 D E2 C2 | D4 D3 C | B,2 A,2 G,4 | D4 z4 | D4 G4- | %10
w: |In-|ter ves-|ti- bu- lum|et al-|ta- * * *|re, et al-|ta- * *|re|plo- ra|
 G2 F2 F2 D2 | F2 E2 z2 D2- | D2 G4 F2 | G4 D4 | F8 | F4 z2 D2 | G6 F2 | F2 G2 G4 | F8 | %19
w: _ bunt sa- cer-|do- tes, plo-|* ra- bunt|sa- cer-|do-|tes, plo-|ra- bunt|sa- cer- dot|tes|
 z2 D2 D2 D2 | B,C DE F2 D2 | F2 E2 F2 G2- | G2 FE F4- | F2 E2 F2 G2- | G2 ^F2 G4 | z4 D4 | %26
w: mi- nis- tri|do- * mi- * ni di-|cen- * * *|* * * tes,|_ di- cen- *|* * tes:|par-|
 G,2 G4 ^F2 | G8 | z8 | D4- D2 D2 | G,4 B,2 B,2 | C4 D4 | z4 F4- | F4 B,4 | F4 G4 | G2 G2 F3 E | %36
w: ce do- i-|ne,||par- * ce|po- pu- lo|tu- o,|par-|* ce|po- *|pu- lo tu- *|
 C2 _E2 E2 E2- | E2 DC D2 D2 | G,A,B,C DE F2 | E2 G4 FE | F4 z4 | z2 D2 D2 D2- | D2 CB, C2 D2 | %43
w: o, et ne des|_ he- * re- di-|ta- * * * * * *|tem tu- * *|am,|et ne des|_ he- * re- di-|
 _E2 E2 D4 | B,2 F4 _E2 | D2 C2 D4 | z2 D4 C2- | C2 B,4 A,2 | B,4 z2 F2 | F2 D2 G2 F_E | %50
w: ta- tem tu-|am in op-|pro- bri- um,|in op-|* pro- bri-|um ut|do- mi- nen- * tur|
 D2 C2 B,C DE | F2 G2 F2 D2- | DC C4 D2- | D2 C2 D4 | z2 D2 _E2 F2 | _E6 DC | D2 F2 F2 D2 | %57
w: e- is na- * ti- *|o- * nes, na-|* ti- o- *|* * nes,|ut do- mi-|nen- * *|tur, ut do- mi-|
 F3 E D2 C2 | D2 D2 G4 | G2 G,2 C2 D2 | _E6 DC | D2 F2 F2 D2 | F2 G2 F2 G2 | D4 _E2 F2- | %64
w: nen- tur e- is|na- ti- o-|nes, ut do- mi-|nen- * *|tur, ut do mi-|nen- tur e- is|na- ti- o-|
 F2 _E2 D4 | D8 |] %66
w: |nes.|
V:3
 z8 | z8 | z8 | z8 | z4 D4 | A6 A2 | B2 B2 A4 | z2 d4 c2 | B2 A2 B3 A | Bc d4 ^c2 | d2 A3 F G2 | %11
w: ||||In-|ter ves-|ti- bu- lum|et al-|ta- * * *||re, et _ al-|
 A4 A4 | z2 G2 d4- | d2 d2 B4 | c4 d4 | c4 B4 | z2 d2 d4- | d2 _e2 e2 e2 | d2 cB c4- | c2 BA B4 | %20
w: ta- re|plo- ra-|* bunt sa-|cer- *|do- tes.|plo- ra-|* bunt sa- cer-|do- * * *||
 G4 z4 | z8 | d4 d2 d2 | c3 B A2 G2 | A4 G4- | G8 | z4 d4- | d4 G4 | c4- c2 B2 | A4 G4 | z2 d4 d2 | %31
w: tes,||mi- ni- stri|do- mi- ni di-|cen- tes:|_|Par-|* ce|do- * *|mi- ne,|par- ce|
 f4 f2 f2 | B4 c4 | B4 z2 d2- | d2 d2 _e4- | e2 _e2 d2 c2- | cF B4 A2 | B4 z2 B2 | B2 B4 AG | %39
w: po- pu- lo|tu- *|o, par-|* ce po-|* pu- lo tu-||o, et|ne des he- *|
 A2 B2 c2 d2- | dc A2 B2 c2 | A4 G2 DE | FG A3 G B2- | B2 A2 B4 | d4 c4 | B2 A2 G4 | B4 A4 | %47
w: re- di- ta- *|* * tem tu- *|* am, tu- *||* * am,|in op-|pro- bri- um,|in op-|
 G3 F _E4 | z2 B4 A2- | A2 B2 c2 c2 | B4 z2 B2 | B2 G2 B3 A | G2 F2 _E2 D2 | _E4 D4 | B4 G2 B2- | %55
w: pro- bri- um,|in op-|* pro- * bri-|um, ut|do- mi- nen- tur|e- is na- ti-|o- nes,|na- ti- o-|
 B2 A2 B4 | z2 d2 d2 B2 | d2 c2 B2 A2 | GABc d2 _e2- | e2 d2 c2 B2- | B2 A2 B4- | B8 | z4 z2 G2- | %63
w: * * nes,|ut do- mi-|nen- tur e- is|na- * * * * *|* ti- o- *|* * nes,|_|na-|
 G2 A2 B4 | c4 A4 | G8 |] %66
w: * * ti-|o- *|nes.|
V:4
 z8 | z8 | z8 | z8 | z8 | z8 | G,,4 D,4- | D,2 D,2 _E,2 E,2 | D,4 z2 G,2- | G,2 F,2 E,4 | %10
w: ||||||In- ter|_ ves- ti- bu-|lum et|_ al- ta-|
 D,3 C, B,,4 | A,,4 A,,2 D,2 | G,,4 z2 D,2 | G,6 G,2 | D,4 D,4 | F,4 G,4 | z2 G,2 B,4- | %17
w: re, _ et|al- ta- *|re plo-|ra- bunt|sa- cer-|do- tes,|plo- ra-|
 B,2 _E,2 E,2 E,2 | F,8 | G,8 | z2 B,2 B,2 B,2 | A,3 G, F,2 E,2 | D,4 D,4 | A,3 G, F,2 _E,2 | %24
w: * bunt sa- cer-|do-|tes|mi- nis- tri|do- mi- ni di-|cen- tes,|do- mi- ni di-|
 D,4 G,,4- | G,,8 | z8 | G,8 | C,4 D,4- | D,2 D,2 G,,4 | z2 G,4 G,2 | F,4 D,4 | G,4 F,4 | %33
w: cen- tes:|_||par-|ce do-|* mi- ne,|par- ce|po- pu-|lo tu-|
 B,,4 z2 B,2- | B,2 B,2 _E,4 | _E,2 E,2 F,4- | F,2 _E,D, C,4 | B,,8 | z8 | z4 z2 D,2 | %40
w: o, par-|* ce po-|pu- lo tu-||o,||et|
 D,2 D,4 C,B,, | C,2 D,2 G,,A,,B,,C, | D,E, F,2 F,E, D,2 | C,4 B,,4 | z8 | z8 | G,4 F,4 | %47
w: ne des he- *|re- di- ta- * * *|* * * * * tem|tu- am|||in op-|
 _E,3 D, C,4 | B,,4 F,4- | F,2 G,2 _E,2 F,2 | B,,8 | z8 | z4 z2 B,2 | B,2 G,2 B,2 A,2 | %54
w: pro- * bri-|um, in|_ op- pro- bri-|um||ut|do- mi- nen- tur|
 G,3 F, _E,2 D,2 | C,4 B,,4- | B,,4 z4 | z8 | z2 G,2 G,2 _E,2 | G,3 F, _E,2 D,2 | C,2 C,2 B,,4 | %61
w: e- is na- ti-|o- nes|_||ut do- mi-|nen- tur e- is|na- ti- o-|
 B,,4 z2 B,2 | B,2 G,2 B,3 A, | G,2 F,2 _E,2 D,2 | C,4 D,4 | G,,8 |] %66
w: nes, ut|do- mi- nen- tur|e- is na- ti-|o- *|nes.|

